img/email-icon.svg

<svg width="50" height="50" viewBox="0 0 50 50" fill="none" xmlns="http://www.w3.org/2000/svg">
<path d="M25 0C11.1953 0 0 11.1953 0 25C0 38.8047 11.1953 50 25 50C38.8047 50 50 38.8057 50 25C50 11.1943 38.8057 0 25 0ZM13.7002 15.5322H36.3008C36.7853 15.5358 37.2601 15.669 37.6758 15.918L25.7334 27.8525C25.5596 28.0202 25.3275 28.1139 25.0859 28.1139C24.8444 28.1139 24.6123 28.0202 24.4385 27.8525L12.4395 15.8535C12.8273 15.6456 13.2601 15.5353 13.7002 15.5322ZM10.9512 31.7197V18.2812C10.9519 17.9047 11.0303 17.5323 11.1816 17.1875L19.1895 25.1953L11.3193 33.0713C11.0808 32.6606 10.9538 32.1947 10.9512 31.7197ZM36.3008 34.4727H13.7002C13.3602 34.47 13.0237 34.4037 12.708 34.2773L20.4922 26.499L23.1445 29.1533C23.6622 29.666 24.3613 29.9535 25.0898 29.9535C25.8184 29.9535 26.5175 29.666 27.0352 29.1533L29.582 26.6006L37.2705 34.2832C36.9615 34.4047 36.6328 34.4689 36.3008 34.4727ZM39.0488 31.7246C39.0455 32.2061 38.914 32.678 38.668 33.0918L30.8828 25.3008L38.8672 17.3164C38.9861 17.6243 39.0483 17.9512 39.0508 18.2812L39.0488 31.7246Z" fill="#D87D63"/>
</svg>

<?xml version="1.0" encoding="utf-8"?>
<!-- Generator: Adobe Illustrator 27.1.1, SVG Export Plug-In . SVG Version: 6.00 Build 0)  -->
<svg version="1.1" id="Layer_1" xmlns="http://www.w3.org/2000/svg" xmlns:xlink="http://www.w3.org/1999/xlink" x="0px" y="0px"
	 viewBox="0 0 50 50" style="enable-background:new 0 0 50 50;" xml:space="preserve">
<style type="text/css">
	.st0{fill:#D87D63;}
</style>
<path class="st0" d="M25,0C11.2,0,0,11.2,0,25s11.2,25,25,25s25-11.2,25-25S38.8,0,25,0z M13.7,15.5h22.6c0.5,0,1,0.1,1.4,0.4
	l-12,11.9c-0.2,0.2-0.4,0.3-0.6,0.3c-0.2,0-0.5-0.1-0.7-0.3l-12-12C12.8,15.7,13.3,15.5,13.7,15.5z M11,31.7V18.3
	c0-0.4,0.1-0.8,0.2-1.1l8,8l-7.9,7.9C11.1,32.7,11,32.2,11,31.7z M36.3,34.5H13.7c-0.3,0-0.7-0.1-1-0.2l7.8-7.8l2.7,2.7
	c0.5,0.5,1.2,0.8,2,0.8c0.7,0,1.4-0.3,1.9-0.8l2.5-2.6l7.7,7.7C37,34.4,36.6,34.5,36.3,34.5z M39,31.7c0,0.5-0.1,1-0.4,1.4l-7.8-7.8
	l8-8c0.1,0.3,0.2,0.6,0.2,1V31.7z"/>
</svg>
